X:1
T:Title
%%score 1 { 2 | 3 }
L:1/8
Q:1/4=98
M:4/4
K:D
V:1 treble nm="Grand Piano, Soprano"
V:2 bass nm="Choir Pad, Shorter, L. J. Coppin, 1898"
V:3 bass 
V:1
 [DF]2 [DF][DF] [DF]3 [DF] | [DF][CE][DF][EG] [FA]4 | [FA]2 [FA]>[FA] [FA]3 [FA] | %3
w: By~Levi~Jenkins~Coppin,~1898 * * * *|||
 [GB][FA][DF]D [CE]4 | [DF]2 [DF][DF] [DF]3 [DF] | [DF][CE][DF][EG] [FA]4 | %6
w: |||
 [GB]2 [EG][GB] [FA]2 [DF]2 | [FA][EG][DF][CE] D4 | [CE]2 [CE]>[DF] [EG][EG] z2 | %9
w: |||
 [DF][CE][DF][EG] [FA]4 | [Fd]2 [Ac][GB] [GB][FA][DF]D | [DF]2 [CE]2 [A,D]4- | [A,D]4 z4 |] %13
w: ||||
V:2
 A,2 A,A, A,3 A, | A,A,A,A,[K:treble] D4 | D2 D>D D3 D | D[K:bass]A,A,F, A,4 | A,2 A,A, A,3 A, | %5
 A,A,A,A, A,4 | G,2 G,G, F,2 A,2 | A,A,A,G, F,4 | A,2 A,>A, A,A, z2 | A,A,A,A, A,4 | %10
 A,2 A,A, A,A,A,B, | A,2 G,2 F,4- | F,4 z4 |] %13
V:3
 D,2 D,D, D,3 D, | D,A,,D,D, D,4 | D,2 D,>D, D,3 D, | D,D,D,D, A,,4 | D,2 D,D, D,3 D, | %5
 D,A,,D,D, D,4 | G,,2 G,,G,, D,2 D,2 | A,,A,,A,,A,, D,4 | A,,2 A,,>A,, A,,A,, z2 | D,D,D,D, D,4 | %10
 D,2 D,D, D,D,D,G,, | A,,2 A,,2 D,4- | D,4 z4 |] %13

